X: 492
M: C|
L: 1/8
K: G
V: 1
|:\
g>age agab | gage gd-de |
gage agab | gaef g2dg |\
edgB A/A/A A2 | D>EGA c/c/c c2 |\
V: 2 clef=bass middle=d
|:\
g2g2 a2a2 | g2g2 c2c2 |\
g2g2 a2a2 | g2g2 g2g2 |
g2g2 a2a2 | g2g2 g2g2 |\
g2g2 a2a2 | g2g2 c2c2 |\

